X:1
T:fandango
C:appris de Patxi, Pantxo et Bruno  Gennetines, fichier abc : Bernard Loffet
L:1/8
Q:470
M:3/4
K:C
|: [z2C,,2] [EC,]G [EC,]G | [eC,,]z [eC,]d [c2C,2] | [z2C,,2] [cC,]e [cC,]e | [dG,,]z [dG,]c [B2G,2] | \
 [z2G,,2] [dG,]f [dG,]f | [eC,,]z [cC,]e [cC,]e | [dG,,]z [BG,]d [BG,]d | [cC,,]z [cC,]d [e2C,2] | \
 [z2C,,2] [EC,]G [EC,]G | [eC,,]z [eC,]d [c2C,2] | [z2C,,2] [cC,]e [cC,]e | [dG,,]z [dG,]c [B2G,2] | \
 [z2G,,2] [dG,]f [dG,]f | [eC,,]z [cC,]e [cC,]e | [dG,,]z [BG,]d [BG,]d | [c2C,,2] C,2 C,2 :|: [z2C,,2] [EC,]z [FG,]z | \
 [GC,,]z [^FG,]z [GC,]z | [eC,,]z [dC,]z [cC,]z | [B2G,,2] G,2 G,2 | [z2G,,2] [DG,]z [EG,]z | \
 [FF,,]z [EF,]z [FF,]z | [AG,,]z [GC,]z [FG,]z | [E2C,,2] C,2 C,2 | [z2C,,2] [EC,]z [FG,]z | \
 [GC,,]z [^FG,]z [GC,]z | [cC,,]z [BC,]z [_BF,]z | [A2F,,2] F,2 F,2 | [z2F,,2] [gF,]z [fF,]z | \
 [eC,,]z [cC,]z [eC,]z | [dG,,]z [BG,]d [BG,]d | [c2C,,2] C,2 C,2 :| \
Z:Created with TablEdit http://www.tabledit.com/ by Bernard Loffet
